X: 21
T:Silver Spire
M:C
L:1/8
K:D
DF ~F2 DFAc| ~d3 e fdAF| G2 BG FdAF| GFED CEA,C|
DF ~F2 DFAc| ~d3 e fdAF| G2 BG FdAF| EA,CE D3 E :|
|:CB,A,B, CDEF| GEED EFGA| BcdB (B{c}BA)c| defe gf e2|
d2 fd cdec| AcdB A3 F| G2 BG FdAF| EA,CE D3 F:|
